src/view/frontend/web/svg/heroicons/outline/truck.svg

<svg  viewBox="0 0 24 24" fill="none" stroke="currentColor" xmlns="http://www.w3.org/2000/svg">
<path d="M9 17C9 18.1046 8.10457 19 7 19C5.89543 19 5 18.1046 5 17C5 15.8954 5.89543 15 7 15C8.10457 15 9 15.8954 9 17Z"/>
<path d="M19 17C19 18.1046 18.1046 19 17 19C15.8954 19 15 18.1046 15 17C15 15.8954 15.8954 15 17 15C18.1046 15 19 15.8954 19 17Z"/>
<path d="M13 16V6C13 5.44772 12.5523 5 12 5H4C3.44772 5 3 5.44772 3 6V16C3 16.5523 3.44772 17 4 17H5M13 16C13 16.5523 12.5523 17 12 17H9M13 16L13 8C13 7.44772 13.4477 7 14 7H16.5858C16.851 7 17.1054 7.10536 17.2929 7.29289L20.7071 10.7071C20.8946 10.8946 21 11.149 21 11.4142V16C21 16.5523 20.5523 17 20 17H19M13 16C13 16.5523 13.4477 17 14 17H15M5 17C5 18.1046 5.89543 19 7 19C8.10457 19 9 18.1046 9 17M5 17C5 15.8954 5.89543 15 7 15C8.10457 15 9 15.8954 9 17M15 17C15 18.1046 15.8954 19 17 19C18.1046 19 19 18.1046 19 17M15 17C15 15.8954 15.8954 15 17 15C18.1046 15 19 15.8954 19 17"  stroke-width="2" stroke-linecap="round" stroke-linejoin="round"/>
</svg>

<svg xmlns="http://www.w3.org/2000/svg" fill="none" stroke="currentColor" viewBox="0 0 24 24"><path d="M9 17a2 2 0 1 1-4 0 2 2 0 0 1 4 0ZM19 17a2 2 0 1 1-4 0 2 2 0 0 1 4 0Z"/><path stroke-linecap="round" stroke-linejoin="round" stroke-width="2" d="M13 16V6a1 1 0 0 0-1-1H4a1 1 0 0 0-1 1v10a1 1 0 0 0 1 1h1m8-1a1 1 0 0 1-1 1H9m4-1V8a1 1 0 0 1 1-1h2.586a1 1 0 0 1 .707.293l3.414 3.414a1 1 0 0 1 .293.707V16a1 1 0 0 1-1 1h-1m-6-1a1 1 0 0 0 1 1h1M5 17a2 2 0 1 0 4 0m-4 0a2 2 0 1 1 4 0m6 0a2 2 0 1 0 4 0m-4 0a2 2 0 1 1 4 0"/></svg>
